X:1
T:Title
%%score { ( 1 3 ) | ( 2 4 ) }
L:1/8
M:4/4
K:G
V:1 treble nm="Grand Piano"
V:3 treble 
V:2 bass 
V:4 bass 
V:1
 z4 z2[Q:1/4=100] D2 | [B,D]2 [B,DE]2 [B,DF]2 [B,DG]2 | G4 z4 | [CDA]2 [CD^G]2 [CDA]2 [CF_B]2 | %4
[M:3/4] [B,DGB]6 |[M:1/4] [GB]2 |[M:4/4] [EGe]2 [DGd]2 [DFc]2 [DGB]2 | d3 c [DGB]2 [DGd]2 | %8
 E2 [Ec]2 [DB]2 [DA]2 | [B,DG]4 [B,DG]ddd | .D2 z2 [Ac]4 | B4 [Bd]4 | ^c4 c4 | %13
[M:7/8] [Fd]2 [G^c]2 [A=c]3 |[M:1/4] B2 |[M:4/4] d2 B2 G2 B2 | [CFA]G[CFA][GB] [CFA]2 [B,G]2 | %17
 [Gd]4 [Ec]4 | B3 c A2 [CDA]2 |[M:3/4] [B,DG]6 |] %20
V:2
 z4 z2 B,2 | [G,,G,]2 [D,,D,]2 [G,,G,]2 [D,,D,]2 | [A,,A,]2 z F A,,2 D,,2 | %3
 [F,,F,]2 [D,,D,]2 [F,,F,]2 [D,,D,]2 |[M:3/4] [G,,G,]2 D,2 G,2 |[M:1/4] D2 | %6
[M:4/4] [C,C]2 [B,,B,]2 [A,,A,]2 [G,,G,]2 | [F,,F,]2 [D,,D,]2 [G,,G,]2 [B,,G,]2 | %8
 [C,G,]2 [A,,G,]2 [D,G,]2 [D,F,C]2 | [G,,G,]2 D,2 G,,DDD | z E z G D,,2 D,2 | z E z G D,,2 D,2 | %12
 [E,,E,]2 G,2 A,,2 A,2 |[M:7/8] [D,,D,]2 [E,,E,]2 [F,,F,]3 |[M:1/4][K:treble] [G,DG]2 | %15
[M:4/4] [G,B,G]2 [G,DG]2 [B,D]2 [G,DG]2 | z B, z D D,2 E,2 | [B,,G,]4 [C,G,]4 | %18
 [D,D]3- [D,-A,D-] [D,-F,D-][D,A,D] D,2 |[M:3/4] G,,6 |] %20
V:3
 x8 | x8 | [CD]2 [CD]2 [A,CDF]2 [D,D]2 | x8 |[M:3/4] z2 G,2 z2 |[M:1/4] x2 |[M:4/4] x8 | %7
 [DA]2 [DF]2 z4 | x8 | x8 | c2- [F,A,Fc]2 z2 [F,A,]2 | .D2 .[G,B,F]2 z2 [G,B,]2 | %12
 A2 [A,^CE]2 A2 [CG]2 |[M:7/8] x7 |[M:1/4] x2 |[M:4/4] x8 | x8 | x8 | x8 |[M:3/4] x6 |] %20
V:4
 x8 | x8 | z2 [D,,D,]2 z4 | x8 |[M:3/4] x6 |[M:1/4] x2 |[M:4/4] x8 | x8 | x8 | x8 | A,,2 D,2 z4 | %11
 G,,2 D,2 z4 | x8 |[M:7/8] x7 |[M:1/4][K:treble] x2 |[M:4/4] x8 | D,2 D,2 z4 | x8 | G,4 z4 | %19
[M:3/4] x6 |] %20

